X: 16181
T: Green Mountain, The
R: reel
M: 4/4
K: Dmajor
AF~F2 AFEF|DF~F2 ABde|~f2df efdB|Advfd edBd|
AF~F2 AFEF|DF~F2 ABde|~f2df efdB|AFEF D3[eB]:|
|:fa~a2 bfaf|defd efde|f2df efdB|Adfd edBd|
fa~a2 bfaf|defd e2de|f2df efdB|AFEF D3[eB]:|

